packages/design-assets/icons/16px/Data.svg

<?xml version="1.0" encoding="UTF-8"?>
<svg width="16px" height="16px" viewBox="0 0 16 16" version="1.1" xmlns="http://www.w3.org/2000/svg" xmlns:xlink="http://www.w3.org/1999/xlink">
    <!-- Generator: Sketch 54.1 (76490) - https://sketchapp.com -->
    <title>Icons/16px/Data</title>
    <desc>Created with Sketch.</desc>
    <g id="Icons/16px/Data" stroke="none" stroke-width="1" fill="none" fill-rule="evenodd">
        <path d="M8,5.64705882 C4.61666667,5.64705882 1,4.8 1,2.82352941 C1,0.847058824 4.61666667,-7.48734408e-13 8,-7.48734408e-13 C11.3833333,-7.48734408e-13 15,0.847058824 15,2.82352941 C15,4.8 11.3833333,5.64705882 8,5.64705882 Z M1,6.58823529 C2.63333333,7.43529412 5.08333333,8 8,8 C10.9166667,8 13.3666667,7.43529412 15,6.58823529 L15,8 C15,9.97647059 11.3833333,10.8235294 8,10.8235294 C4.61666667,10.8235294 1,9.97647059 1,8 L1,6.58823529 Z M1,11.2941176 C2.63333333,12.1411765 5.08333333,12.7058824 8,12.7058824 C10.9166667,12.7058824 13.3666667,12.2352941 15,11.2941176 L15,12.7058824 C15,14.6823529 11.3833333,15.5294118 8,15.5294118 C4.61666667,15.5294118 1,14.6823529 1,12.7058824 L1,11.2941176 Z" id="i-16-data" fill="#818F99"></path>
    </g>
</svg>

<svg width="16" height="16" xmlns="http://www.w3.org/2000/svg"><path d="M8 5.647c-3.383 0-7-.847-7-2.823C1 .847 4.617 0 8 0s7 .847 7 2.824c0 1.976-3.617 2.823-7 2.823zm-7 .941C2.633 7.435 5.083 8 8 8s5.367-.565 7-1.412V8c0 1.976-3.617 2.824-7 2.824S1 9.976 1 8V6.588zm0 4.706c1.633.847 4.083 1.412 7 1.412s5.367-.47 7-1.412v1.412c0 1.976-3.617 2.823-7 2.823s-7-.847-7-2.823v-1.412z" fill="#818F99" fill-rule="evenodd"/></svg>
